assets/Curly loop/Flat/curly_loop_flat.svg

<svg width="32" height="32" viewBox="0 0 32 32" fill="none" xmlns="http://www.w3.org/2000/svg">
<path d="M16 28.0063C11.3169 28.0063 7.50625 24.1988 7.5 19.5169C7.495 19.1031 7.52437 13.9044 11.745 9.59812C12.1412 9.19375 12.5612 8.81063 13.0025 8.44938C10.4525 7.48563 7.07938 7 3.5 7C2.67188 7 2 6.32812 2 5.5C2 4.67188 2.67188 4 3.5 4C8.3675 4 12.7506 4.83875 16.0106 6.50062C19.2669 4.84687 23.6431 4.0125 28.5 4.0125C29.3281 4.0125 30 4.68438 30 5.5125C30 6.34063 29.3281 7.0125 28.5 7.0125C24.9288 7.0125 21.5612 7.49562 19.015 8.45437C19.4487 8.81 19.8606 9.18625 20.2506 9.58437C24.4725 13.89 24.505 19.0888 24.5006 19.5044V19.5069C24.5 24.1931 20.6869 28.0063 16 28.0063ZM16.0081 9.96375C15.2263 10.4756 14.5194 11.0537 13.8881 11.6981C10.455 15.2006 10.4994 19.4337 10.5 19.4762V19.5063C10.5 22.5388 12.9675 25.0063 16 25.0063C19.0325 25.0063 21.5 22.5388 21.5 19.5063V19.4675C21.5 19.3137 21.4594 15.0713 18.07 11.6456C17.4537 11.0225 16.7663 10.4619 16.0081 9.96375Z" fill="#321B41"/>
</svg>

<svg xmlns="http://www.w3.org/2000/svg" width="32" height="32" fill="none"><path fill="#321B41" d="M16 28.006c-4.683 0-8.494-3.807-8.5-8.49-.005-.413.024-5.612 4.245-9.918.396-.404.816-.787 1.258-1.149C10.453 7.486 7.078 7 3.5 7a1.5 1.5 0 0 1 0-3c4.867 0 9.25.839 12.51 2.5 3.257-1.653 7.633-2.487 12.49-2.487a1.5 1.5 0 0 1 0 3c-3.571 0-6.939.483-9.485 1.441.434.356.846.732 1.236 1.13 4.221 4.306 4.254 9.505 4.25 9.92v.003c-.001 4.686-3.814 8.5-8.501 8.5Zm.008-18.042a12.673 12.673 0 0 0-2.12 1.734c-3.433 3.503-3.389 7.736-3.388 7.778v.03c0 3.033 2.467 5.5 5.5 5.5 3.032 0 5.5-2.467 5.5-5.5v-.038c0-.154-.04-4.397-3.43-7.822a12.687 12.687 0 0 0-2.062-1.682Z"/></svg>
